Numix/16/emotes/face-glasses.svg

<?xml version="1.0" encoding="UTF-8" standalone="no"?>
<svg
   xmlns:dc="http://purl.org/dc/elements/1.1/"
   xmlns:cc="http://creativecommons.org/ns#"
   xmlns:rdf="http://www.w3.org/1999/02/22-rdf-syntax-ns#"
   xmlns:svg="http://www.w3.org/2000/svg"
   xmlns="http://www.w3.org/2000/svg"
   xmlns:sodipodi="http://sodipodi.sourceforge.net/DTD/sodipodi-0.dtd"
   xmlns:inkscape="http://www.inkscape.org/namespaces/inkscape"
   width="16px"
   height="16px"
   viewBox="0 0 12 12"
   version="1.1"
   id="svg3169"
   inkscape:version="0.91 r"
   sodipodi:docname="face-glasses.svg">
  <metadata
     id="metadata3190">
    <rdf:RDF>
      <cc:Work
         rdf:about="">
        <dc:format>image/svg+xml</dc:format>
        <dc:type
           rdf:resource="http://purl.org/dc/dcmitype/StillImage" />
      </cc:Work>
    </rdf:RDF>
  </metadata>
  <defs
     id="defs3188" />
  <sodipodi:namedview
     pagecolor="#ffffff"
     bordercolor="#666666"
     borderopacity="1"
     objecttolerance="10"
     gridtolerance="10"
     guidetolerance="10"
     inkscape:pageopacity="0"
     inkscape:pageshadow="2"
     inkscape:window-width="640"
     inkscape:window-height="480"
     id="namedview3186" />
  <g
     id="surface1">
    <path
       style=" stroke:none;fill-rule:nonzero;fill:rgb(100%,85.098039%,36.078431%);fill-opacity:1;"
       d="M 11.25 6 C 11.25 8.484375 8.898438 10.5 6 10.5 C 3.101562 10.5 0.75 8.484375 0.75 6 C 0.75 3.515625 3.097656 1.5 6 1.5 C 8.902344 1.5 11.25 3.515625 11.25 6 Z M 11.25 6 "
       id="path3172" />
    <path
       style=" stroke:none;fill-rule:nonzero;fill:rgb(38.823529%,38.823529%,38.823529%);fill-opacity:1;"
       d="M 3.75 7.125 C 3.9375 8.066406 4.886719 8.71875 6 8.71875 C 7.117188 8.71875 8.066406 8.066406 8.25 7.125 L 7.875 7.125 C 7.738281 7.6875 6.972656 8.066406 6 8.066406 C 5.03125 8.066406 4.261719 7.6875 4.125 7.125 Z M 3.75 7.125 "
       id="path3174" />
    <path
       style=" stroke:none;fill-rule:nonzero;fill:rgb(49.019608%,90.196078%,93.333333%);fill-opacity:1;"
       d="M 2.835938 3.753906 L 5.226562 3.753906 C 5.300781 3.753906 5.359375 3.8125 5.359375 3.882812 L 5.359375 5.457031 C 5.359375 5.527344 5.300781 5.585938 5.226562 5.585938 L 2.835938 5.585938 C 2.761719 5.585938 2.703125 5.527344 2.703125 5.457031 L 2.703125 3.882812 C 2.703125 3.8125 2.761719 3.753906 2.835938 3.753906 Z M 2.835938 3.753906 "
       id="path3176" />
    <path
       style="fill:none;stroke-width:1.125;stroke-linecap:square;stroke-linejoin:miter;stroke:rgb(20.784314%,20.784314%,20.784314%);stroke-opacity:1;stroke-miterlimit:4;"
       d="M 5.703125 7.3125 L 10.421875 7.3125 C 10.570312 7.3125 10.6875 7.429688 10.6875 7.570312 L 10.6875 11.179688 C 10.6875 11.320312 10.570312 11.4375 10.421875 11.4375 L 5.703125 11.4375 C 5.554688 11.4375 5.4375 11.320312 5.4375 11.179688 L 5.4375 7.570312 C 5.4375 7.429688 5.554688 7.3125 5.703125 7.3125 Z M 5.703125 7.3125 "
       transform="matrix(0.5,0,0,0.5,0,0)"
       id="path3178" />
    <path
       style=" stroke:none;fill-rule:nonzero;fill:rgb(20.784314%,20.784314%,20.784314%);fill-opacity:1;"
       d="M 5.570312 3.976562 L 6.355469 3.976562 C 6.429688 3.976562 6.488281 4.035156 6.488281 4.105469 L 6.488281 4.367188 C 6.488281 4.441406 6.429688 4.5 6.355469 4.5 L 5.570312 4.5 C 5.496094 4.5 5.4375 4.441406 5.4375 4.367188 L 5.4375 4.105469 C 5.4375 4.035156 5.496094 3.976562 5.570312 3.976562 Z M 5.570312 3.976562 "
       id="path3180" />
    <path
       style=" stroke:none;fill-rule:nonzero;fill:rgb(49.019608%,90.196078%,93.333333%);fill-opacity:1;"
       d="M 6.773438 3.753906 L 9.164062 3.753906 C 9.238281 3.753906 9.296875 3.8125 9.296875 3.882812 L 9.296875 5.457031 C 9.296875 5.527344 9.238281 5.585938 9.164062 5.585938 L 6.773438 5.585938 C 6.699219 5.585938 6.640625 5.527344 6.640625 5.457031 L 6.640625 3.882812 C 6.640625 3.8125 6.699219 3.753906 6.773438 3.753906 Z M 6.773438 3.753906 "
       id="path3182" />
    <path
       style="fill:none;stroke-width:1.125;stroke-linecap:square;stroke-linejoin:miter;stroke:rgb(20.784314%,20.784314%,20.784314%);stroke-opacity:1;stroke-miterlimit:4;"
       d="M 13.578125 7.3125 L 18.296875 7.3125 C 18.445312 7.3125 18.5625 7.429688 18.5625 7.570312 L 18.5625 11.179688 C 18.5625 11.320312 18.445312 11.4375 18.296875 11.4375 L 13.578125 11.4375 C 13.429688 11.4375 13.3125 11.320312 13.3125 11.179688 L 13.3125 7.570312 C 13.3125 7.429688 13.429688 7.3125 13.578125 7.3125 Z M 13.578125 7.3125 "
       transform="matrix(0.5,0,0,0.5,0,0)"
       id="path3184" />
  </g>
</svg>

<svg xmlns="http://www.w3.org/2000/svg" width="16" height="16" viewBox="0 0 12 12">
 <g>
  <path d="m 11.25 6 c 0 2.484 -2.352 4.5 -5.25 4.5 c -2.898 0 -5.25 -2.02 -5.25 -4.5 c 0 -2.484 2.348 -4.5 5.25 -4.5 c 2.902 0 5.25 2.02 5.25 4.5 m 0 0" style="fill:#ffd85b;fill-opacity:1;stroke:none;fill-rule:nonzero"/>
  <path d="m 3.75 7.125 c 0.188 0.941 1.137 1.594 2.25 1.594 c 1.117 0 2.066 -0.652 2.25 -1.594 l -0.375 0 c -0.137 0.563 -0.902 0.941 -1.875 0.941 c -0.969 0 -1.738 -0.379 -1.875 -0.941 m -0.375 0" style="fill:#626262;fill-opacity:1;stroke:none;fill-rule:nonzero"/>
  <path d="m 2.836 3.754 l 2.391 0 c 0.074 0 0.133 0.059 0.133 0.129 l 0 1.574 c 0 0.07 -0.059 0.129 -0.133 0.129 l -2.391 0 c -0.074 0 -0.133 -0.059 -0.133 -0.129 l 0 -1.574 c 0 -0.07 0.059 -0.129 0.133 -0.129 m 0 0" style="fill:#7de5ed;fill-opacity:1;stroke:none;fill-rule:nonzero"/>
  <path d="m 5.703 7.313 l 4.719 0 c 0.148 0 0.266 0.117 0.266 0.258 l 0 3.609 c 0 0.141 -0.117 0.258 -0.266 0.258 l -4.719 0 c -0.148 0 -0.266 -0.117 -0.266 -0.258 l 0 -3.609 c 0 -0.141 0.117 -0.258 0.266 -0.258 m 0 0" transform="matrix(0.5,0,0,0.5,0,0)" style="stroke-opacity:1;fill:none;stroke-miterlimit:4;stroke:#353535;stroke-linecap:square;stroke-linejoin:miter;stroke-width:1.125"/>
  <path d="m 5.57 3.977 l 0.785 0 c 0.074 0 0.133 0.059 0.133 0.129 l 0 0.262 c 0 0.074 -0.059 0.133 -0.133 0.133 l -0.785 0 c -0.074 0 -0.133 -0.059 -0.133 -0.133 l 0 -0.262 c 0 -0.07 0.059 -0.129 0.133 -0.129 m 0 0" style="fill:#353535;fill-opacity:1;stroke:none;fill-rule:nonzero"/>
  <path d="m 6.773 3.754 l 2.391 0 c 0.074 0 0.133 0.059 0.133 0.129 l 0 1.574 c 0 0.07 -0.059 0.129 -0.133 0.129 l -2.391 0 c -0.074 0 -0.133 -0.059 -0.133 -0.129 l 0 -1.574 c 0 -0.07 0.059 -0.129 0.133 -0.129 m 0 0" style="fill:#7de5ed;fill-opacity:1;stroke:none;fill-rule:nonzero"/>
  <path d="m 13.578 7.313 l 4.719 0 c 0.148 0 0.266 0.117 0.266 0.258 l 0 3.609 c 0 0.141 -0.117 0.258 -0.266 0.258 l -4.719 0 c -0.148 0 -0.266 -0.117 -0.266 -0.258 l 0 -3.609 c 0 -0.141 0.117 -0.258 0.266 -0.258 m 0 0" transform="matrix(0.5,0,0,0.5,0,0)" style="stroke-opacity:1;fill:none;stroke-miterlimit:4;stroke:#353535;stroke-linecap:square;stroke-linejoin:miter;stroke-width:1.125"/>
 </g>
</svg>
